public/illustrations/_confined.svg

<svg width="186" height="223" viewBox="0 0 186 223" fill="none" xmlns="http://www.w3.org/2000/svg">
<path d="M2.57831 102.419C2.93228 99.4594 3.78178 93.711 4.33397 87.9202C4.43308 86.5043 4.8294 84.9753 5.62228 83.7576C6.27358 82.5258 7.22236 81.3222 8.42584 80.416C20.574 69.5139 32.7221 58.4703 44.7287 47.554C60.5156 33.3671 76.175 19.0245 91.9761 4.83762C93.5052 3.39344 95.1476 2.23237 96.9175 1.22711C100.613 -0.783411 102.708 -0.344439 105.469 2.69966C108.23 5.74376 111.119 9.07103 113.865 12.2567C134.948 36.6378 155.917 60.8774 176.857 85.2443C179.746 88.5716 181.416 92.8192 181.53 97.2225C182.577 131.798 183.625 166.359 184.673 200.792C184.829 204.488 184.984 208.198 185.14 212.035C185.352 218.859 182.11 222.455 175.3 222.54C166.635 222.625 158.125 222.427 149.474 222.37C133.574 222.356 117.674 222.484 101.632 222.455C84.5994 222.356 67.439 222.243 50.2646 222.144C37.3519 222.059 24.2835 222.101 11.3708 222.158C2.28092 222.215 -0.225187 219.609 0.0155101 210.406C0.596015 190.57 1.19068 170.606 1.78534 150.629C2.16763 135.465 2.40837 120.442 2.71986 102.433H2.57831V102.419ZM170.118 211.808L174.379 211.836C173.162 173.707 172.072 135.861 170.868 97.7323L14.1883 93.343C13.7777 95.1553 13.3531 96.9674 13.2256 98.8081C12.8575 111.707 12.5035 124.45 12.1354 137.348C11.5549 159.166 11.1018 180.999 10.5213 202.817C10.3231 205.635 10.5354 208.495 10.4788 211.327L11.8663 211.85C17.6997 197.932 25.8268 185.742 37.5785 176.242C49.3443 166.727 63.2198 161.205 78.2988 158.897C78.0723 158.175 78.0722 158.034 77.9306 158.019C77.6758 157.58 77.2794 157.269 76.8688 156.943C67.4391 148.023 63.687 137.107 66.0232 124.506C68.5576 111.055 76.1892 101.682 89.6824 97.8312C90.8434 97.4914 92.0185 96.8687 93.3211 96.6704C94.4821 96.3306 95.6149 96.2738 96.7476 96.4862C99.2536 97.095 101.76 97.8454 104.124 98.5816C108.287 99.8701 112.095 102.135 115.281 105.208C118.863 108.733 121.667 113.052 123.592 117.88C125.376 122.694 126.141 127.72 125.914 132.817C125.546 137.9 124.201 142.771 121.737 147.273C119.288 151.776 116.017 155.655 111.968 158.77C111.076 159.421 110.17 160.058 108.811 161.233C122.049 164.745 134.367 171.031 144.944 179.753C155.378 188.602 163.944 199.589 169.863 211.935L170.16 211.822L170.118 211.808ZM23.1932 211.667L157.601 212.035L157.658 211.185C157.672 210.902 157.431 210.463 157.304 210.166C141.276 184.581 118.807 169.332 87.8701 169.219C64.3101 169.077 45.5215 179.64 31.5327 198.357C28.701 202.265 26.3789 206.782 23.3206 211.822L23.1932 211.667ZM21.7348 82.9363L163.406 86.9575L149.503 71.185L137.213 70.2928C123.918 69.6132 110.467 69.0609 97.1722 68.3812C79.4881 67.5317 61.8039 66.6682 44.1339 65.6771C43.0012 65.5921 42.0102 65.6771 40.9908 66.0169C39.9713 66.3708 39.0793 67.0079 38.3147 67.6733C33.8972 71.8926 29.1965 75.9564 24.6374 80.0341C23.7454 80.6854 23.1084 81.4782 21.8766 82.8091L21.7208 82.9363H21.7348ZM139.535 59.6738L139.634 58.3997C135.967 54.1521 132.314 49.777 128.647 45.5436C127.854 44.779 126.735 44.4108 125.617 44.3258C121.95 44.0568 118.255 44.0709 114.432 43.9435C99.4377 43.278 84.4436 42.4853 69.4355 41.9614C68.1612 41.8623 66.8587 42.2023 65.9667 42.8394C61.4217 46.7755 57.0041 50.9946 52.5866 55.0723C52.5866 55.0723 52.5584 55.4972 52.6716 55.9361L139.846 59.7022H139.563L139.535 59.6738ZM82.957 113.788C74.1787 121.391 73.2866 141.482 85.7179 150.048C88.6912 152.115 92.3017 153.22 95.8556 153.191C99.4094 153.163 103.034 152.002 106.021 149.949C118.269 141.61 118.17 121.448 109.221 113.562C100.528 119.89 91.7354 117.838 82.957 113.647V113.788ZM98.942 12.5965L78.2704 31.3992L78.6386 32.1354L117.419 33.6647L98.9279 12.5965H98.942Z" fill="#102185"/>
<path d="M90.0791 123.104C91.3533 123.203 92.5852 123.855 93.3498 124.902C94.1285 125.95 94.5957 127.267 94.3692 128.527C94.3125 129.235 94.1426 129.787 93.8028 130.467C93.4772 131.005 93.0099 131.543 92.5568 131.939C91.9622 132.321 91.3675 132.704 90.787 132.803C90.2065 133.043 89.4987 132.987 88.7908 132.944C88.0828 132.902 87.5306 132.718 86.9926 132.392C86.4545 132.067 85.9165 131.599 85.52 131.146C85.1236 130.693 84.8829 130.113 84.6564 129.376C84.5573 128.796 84.4723 128.088 84.5006 127.521C84.5998 126.247 85.3926 125.03 86.4404 124.251C87.4881 123.472 88.6632 122.991 90.0791 123.09V123.104Z" fill="#102185"/>
<path d="M108.627 129.703C108.584 130.269 108.528 130.977 108.216 131.515C107.891 132.053 107.565 132.605 106.97 132.988C106.517 133.384 105.923 133.766 105.342 133.865C104.762 134.106 104.054 134.05 103.487 134.021C102.921 133.993 102.355 133.936 101.817 133.469C101.279 133.144 100.726 132.818 100.33 132.365C99.9334 131.912 99.6928 131.331 99.4521 130.736C99.2114 130.156 99.2539 129.59 99.2963 128.882C99.3388 128.316 99.3955 127.608 99.707 127.07C100.033 126.532 100.358 125.979 100.811 125.583C101.264 125.186 101.859 124.804 102.44 124.705C103.02 124.464 103.728 124.521 104.294 124.549C104.861 124.578 105.569 124.648 105.965 124.96C106.503 125.286 107.055 125.611 107.452 126.064C107.848 126.517 108.089 127.098 108.33 127.692C108.57 128.273 108.528 128.839 108.485 129.547L108.613 129.703H108.627Z" fill="#102185"/>
</svg>

<svg xmlns="http://www.w3.org/2000/svg" width="186" height="223" fill="none" viewBox="0 0 186 223"><path fill="#102185" d="M2.578 102.419c.354-2.96 1.204-8.708 1.756-14.499.1-1.416.495-2.945 1.288-4.162.652-1.232 1.6-2.436 2.804-3.342C20.574 69.514 32.722 58.47 44.729 47.554c15.787-14.187 31.446-28.53 47.247-42.716 1.53-1.445 3.172-2.606 4.942-3.61 3.695-2.011 5.79-1.572 8.551 1.472s5.65 6.371 8.396 9.557c21.083 24.38 42.052 48.62 62.992 72.987a19.07 19.07 0 0 1 4.673 11.978c1.047 34.576 2.095 69.137 3.143 103.57.156 3.696.311 7.406.467 11.243.212 6.824-3.03 10.42-9.84 10.505-8.665.085-17.175-.113-25.826-.17-15.9-.014-31.8.114-47.842.085-17.033-.099-34.193-.212-51.367-.311-12.913-.085-25.981-.043-38.894.014-9.09.057-11.596-2.549-11.355-11.752.58-19.836 1.175-39.8 1.77-59.777.382-15.164.622-30.187.934-48.196h-.142zm167.54 109.389 4.261.028c-1.217-38.129-2.307-75.975-3.511-114.104l-156.68-4.389c-.41 1.812-.835 3.624-.962 5.465-.369 12.899-.723 25.642-1.09 38.54-.581 21.818-1.034 43.651-1.615 65.469-.198 2.818.014 5.678-.042 8.51l1.387.523c5.834-13.918 13.96-26.108 25.713-35.608 11.765-9.515 25.64-15.037 40.72-17.345-.227-.722-.227-.863-.368-.878-.255-.439-.652-.75-1.062-1.076-9.43-8.92-13.182-19.836-10.846-32.437 2.535-13.451 10.166-22.824 23.66-26.675 1.16-.34 2.335-.962 3.638-1.16a7.24 7.24 0 0 1 3.427-.185c2.506.609 5.012 1.36 7.376 2.096 4.163 1.288 7.971 3.553 11.157 6.626 3.582 3.525 6.386 7.844 8.311 12.672a37.9 37.9 0 0 1 2.322 14.937c-.368 5.083-1.713 9.954-4.177 14.456-2.449 4.503-5.72 8.382-9.769 11.497-.892.651-1.798 1.288-3.157 2.463 13.238 3.512 25.556 9.798 36.133 18.52 10.434 8.849 19 19.836 24.919 32.182l.297-.113zm-146.925-.141 134.408.368.057-.85c.014-.283-.227-.722-.354-1.019-16.028-25.585-38.497-40.834-69.434-40.947-23.56-.142-42.348 10.421-56.337 29.138-2.832 3.908-5.154 8.425-8.212 13.465zm-1.458-128.73 141.671 4.02-13.903-15.772-12.29-.892c-13.295-.68-26.746-1.232-40.04-1.912-17.685-.85-35.37-1.713-53.04-2.704-1.132-.085-2.123 0-3.142.34-1.02.354-1.912.99-2.676 1.656-4.418 4.22-9.118 8.283-13.678 12.361-.892.651-1.529 1.444-2.76 2.775l-.156.127zm117.8-23.263.099-1.274c-3.667-4.248-7.32-8.623-10.987-12.856-.793-.765-1.912-1.133-3.03-1.218-3.667-.27-7.362-.255-11.185-.383-14.994-.665-29.988-1.458-44.996-1.982-1.275-.099-2.577.241-3.47.878-4.544 3.937-8.962 8.156-13.38 12.233 0 0-.028.425.086.864l87.174 3.766h-.283zm-56.578 54.114c-8.778 7.603-9.67 27.694 2.76 36.26a17.7 17.7 0 0 0 10.139 3.143c3.553-.028 7.178-1.189 10.165-3.242 12.248-8.339 12.149-28.501 3.2-36.387-8.693 6.328-17.486 4.276-26.264.085zM98.942 12.597 78.27 31.399l.369.736 38.78 1.53-18.491-21.068z"/><path fill="#102185" d="M90.08 123.104c1.273.099 2.505.751 3.27 1.798.779 1.048 1.246 2.365 1.02 3.625-.058.708-.227 1.26-.567 1.94a6.6 6.6 0 0 1-1.246 1.472c-.595.382-1.19.765-1.77.864-.58.24-1.288.184-1.996.141a3.7 3.7 0 0 1-1.798-.552 6.6 6.6 0 0 1-1.473-1.246c-.396-.453-.637-1.033-.864-1.77-.099-.58-.184-1.288-.155-1.855.099-1.274.892-2.491 1.94-3.27 1.047-.779 2.222-1.26 3.638-1.161zM108.627 129.703c-.043.566-.099 1.274-.411 1.812-.325.538-.651 1.09-1.246 1.473-.453.396-1.047.778-1.628.877-.58.241-1.288.185-1.855.156-.566-.028-1.132-.085-1.67-.552-.538-.325-1.091-.651-1.487-1.104s-.637-1.034-.878-1.629c-.24-.58-.198-1.146-.156-1.854.043-.566.1-1.274.411-1.812.326-.538.651-1.091 1.104-1.487s1.048-.779 1.629-.878c.58-.241 1.288-.184 1.854-.156.567.029 1.275.099 1.671.411.538.326 1.09.651 1.487 1.104.396.453.637 1.034.878 1.628.24.581.198 1.147.155 1.855l.128.156z"/></svg>
